icons/mobile/24/svg/tab-tray-24.svg

<svg width="24" height="24" viewBox="0 0 24 24" fill="none" xmlns="http://www.w3.org/2000/svg">
<path d="M5.42139 18.25C5.5904 18.5379 5.86934 18.7576 6.21729 18.8105C10.0472 19.3945 13.99 19.3936 17.8159 18.8057C18.1509 18.7537 18.4214 18.536 18.5854 18.25H20.4458C20.2208 19.4238 19.2973 20.348 18.0825 20.5352C16.0757 20.8441 14.0293 21 12.0015 21C9.98446 21 7.94864 20.845 5.95264 20.54C4.74283 20.3549 3.79503 19.4129 3.56006 18.25H5.42139Z" fill="black"/>
<path fill-rule="evenodd" clip-rule="evenodd" d="M12.0005 4C13.7251 4.00002 15.7726 4.11135 18.0493 4.45996C19.4509 4.67508 20.5003 5.8819 20.5005 7.30762V13.6943C20.5003 15.0963 19.4895 16.3186 18.0815 16.5352C16.3122 16.807 14.268 17 12.0005 17C10.2759 17 8.22841 16.8886 5.95166 16.54C4.54986 16.3251 3.4997 15.1183 3.49951 13.6924V7.30566C3.49967 5.90357 4.51126 4.68123 5.91943 4.46484C7.68879 4.19297 9.73295 4 12.0005 4ZM12.0005 5.75C9.83243 5.75 7.87748 5.93526 6.18506 6.19531C5.6537 6.27711 5.25065 6.74422 5.25049 7.30566V13.6924C5.25068 14.2461 5.66148 14.7254 6.21729 14.8105C8.39398 15.1438 10.3514 15.25 12.0005 15.25C14.1686 15.25 16.1235 15.0648 17.8159 14.8047C18.347 14.7227 18.7503 14.2556 18.7505 13.6943V7.30762C18.7503 6.75408 18.3393 6.27481 17.7837 6.18945C15.607 5.85618 13.6496 5.75002 12.0005 5.75Z" fill="black"/>
</svg>

<!-- This Source Code Form is subject to the terms of the Mozilla Public
   - License, v. 2.0. If a copy of the MPL was not distributed with this
   - file, You can obtain one at http://mozilla.org/MPL/2.0/. -->
<svg xmlns="http://www.w3.org/2000/svg" width="24" height="24" fill="none" viewBox="0 0 24 24">
    <path fill="#000" d="M5.421 18.25c.17.288.448.508.796.56 3.83.585 7.773.584 11.599-.004a1.09 1.09 0 0 0 .77-.556h1.86a2.84 2.84 0 0 1-2.364 2.285 40.1 40.1 0 0 1-12.13.005 2.91 2.91 0 0 1-2.392-2.29z" />
    <path fill="#000" fill-rule="evenodd" d="M12 4c1.725 0 3.773.111 6.05.46a2.89 2.89 0 0 1 2.45 2.848v6.386c0 1.402-1.01 2.625-2.419 2.841a40 40 0 0 1-12.13.005A2.89 2.89 0 0 1 3.5 13.692V7.306a2.87 2.87 0 0 1 2.42-2.841A40 40 0 0 1 12 4m0 1.75c-2.168 0-4.123.185-5.815.445a1.116 1.116 0 0 0-.935 1.11v6.387c0 .554.411 1.033.967 1.118a38.2 38.2 0 0 0 11.599-.005c.531-.082.934-.55.934-1.11V7.307c0-.554-.41-1.033-.966-1.119A38 38 0 0 0 12 5.75" clip-rule="evenodd" />
</svg>
